!! 00000] TT[WS
!!!OTL: Sibao langong
!!!ARE: Asia, China, Shanxi LÅliang
!! Ethnic Group: Han
!! WII, 40
!!!SCT: J0461
!!!YEM: Copyright 1995, estate of Helmut Schaffrath.
**kern
*ICvox
*Ivox
*M2/4
*k[f#c#g#]
*A:
{4ee
8aa
8bb
=1
8ff#
8ee
8cc#
8b
=2
4.bb
8eee
=3
8ccc#
8bb
4aa
=4
8bb
8fff#
8eee
8ddd
=5
8bb
8ddd
8aa
8ff#
=6
8ee
8aa
8dd
8b
=7
2ee}
=8
{4aa
8ff#
8ee
=9
4bb
4eee
=10
8aa
8ff#
8bb
8eee
=11
8ff#
8ee
8dd
8b
=12
8ee
8ccc#
8bb
8aa
=13
8ee
8aa
8ee
8dd
=14
4.b
8a
=15
2b}
==
!!!AGN: Xiaodiao. Qingge
!!!ONB: ESAC (Essen Associative Code) Database: CHINA
!!!AMT: simple duple
!!!AIN: vox
!!!EED: Helmut Schaffrath
!!!EEV: 1.0
*-
